Newaita-dark/.places-manjaro/16/user-trash.svg

<?xml version="1.0" encoding="UTF-8"?>
<svg xmlns="http://www.w3.org/2000/svg" xmlns:xlink="http://www.w3.org/1999/xlink" width="16pt" height="16pt" viewBox="0 0 16 16" version="1.1">
<defs>
<linearGradient id="linear0" gradientUnits="userSpaceOnUse" x1="254" y1="233.5" x2="254" y2="254.666672" gradientTransform="matrix(0.031253,0,0,0.031253,-0.00000190753,6.719393)">
<stop offset="0" style="stop-color:rgb(0%,0%,0%);stop-opacity:0.27451;"/>
<stop offset="1" style="stop-color:rgb(0%,0%,0%);stop-opacity:0;"/>
</linearGradient>
<radialGradient id="radial0" gradientUnits="userSpaceOnUse" cx="450.908936" cy="189.579361" fx="450.908936" fy="189.579361" r="21.166656" gradientTransform="matrix(0.0000000870852,-0.0390662,-0.0703192,-0.0000000507693,24.742283,31.797666)">
<stop offset="0" style="stop-color:rgb(0%,0%,0%);stop-opacity:0.313725;"/>
<stop offset="0.222222" style="stop-color:rgb(0%,0%,0%);stop-opacity:0.27451;"/>
<stop offset="1" style="stop-color:rgb(0%,0%,0%);stop-opacity:0;"/>
</radialGradient>
<radialGradient id="radial1" gradientUnits="userSpaceOnUse" cx="450.908936" cy="189.579361" fx="450.908936" fy="189.579361" r="21.166656" gradientTransform="matrix(-0.0000000870852,0.0390662,0.0703192,0.0000000507693,-8.865766,-3.763739)">
<stop offset="0" style="stop-color:rgb(0%,0%,0%);stop-opacity:0.313725;"/>
<stop offset="0.222222" style="stop-color:rgb(0%,0%,0%);stop-opacity:0.27451;"/>
<stop offset="1" style="stop-color:rgb(0%,0%,0%);stop-opacity:0;"/>
</radialGradient>
<radialGradient id="radial2" gradientUnits="userSpaceOnUse" cx="450.908936" cy="189.579361" fx="450.908936" fy="189.579361" r="21.166656" gradientTransform="matrix(-0.0000000870852,-0.0390662,0.0703192,-0.0000000507693,-8.865766,31.797666)">
<stop offset="0" style="stop-color:rgb(0%,0%,0%);stop-opacity:0.313725;"/>
<stop offset="0.222222" style="stop-color:rgb(0%,0%,0%);stop-opacity:0.27451;"/>
<stop offset="1" style="stop-color:rgb(0%,0%,0%);stop-opacity:0;"/>
</radialGradient>
<radialGradient id="radial3" gradientUnits="userSpaceOnUse" cx="450.908936" cy="189.579361" fx="450.908936" fy="189.579361" r="21.166656" gradientTransform="matrix(0.0000000870852,0.0390662,-0.0703192,0.0000000507693,24.742282,-3.76374)">
<stop offset="0" style="stop-color:rgb(0%,0%,0%);stop-opacity:0.313725;"/>
<stop offset="0.222222" style="stop-color:rgb(0%,0%,0%);stop-opacity:0.27451;"/>
<stop offset="1" style="stop-color:rgb(0%,0%,0%);stop-opacity:0;"/>
</radialGradient>
<linearGradient id="linear1" gradientUnits="userSpaceOnUse" x1="254" y1="-105.166672" x2="254" y2="233.5" gradientTransform="matrix(0.031253,0,0,0.031253,0,6.719392)">
<stop offset="0" style="stop-color:rgb(30.196078%,71.372549%,67.45098%);stop-opacity:1;"/>
<stop offset="1" style="stop-color:rgb(14.901961%,65.098039%,60.392157%);stop-opacity:1;"/>
</linearGradient>
<linearGradient id="linear2" gradientUnits="userSpaceOnUse" x1="254" y1="233.5" x2="254" y2="-168.666656" >
<stop offset="0" style="stop-color:rgb(25.882353%,25.882353%,25.882353%);stop-opacity:1;"/>
<stop offset="1" style="stop-color:rgb(38.039216%,38.039216%,38.039216%);stop-opacity:1;"/>
</linearGradient>
<linearGradient id="linear3" gradientUnits="userSpaceOnUse" x1="285.75" y1="191.166672" x2="285.75" y2="-147.5" >
<stop offset="0" style="stop-color:rgb(30.196078%,71.372549%,67.45098%);stop-opacity:1;"/>
<stop offset="1" style="stop-color:rgb(14.901961%,65.098039%,60.392157%);stop-opacity:1;"/>
</linearGradient>
<linearGradient id="linear4" gradientUnits="userSpaceOnUse" x1="253.999985" y1="233.5" x2="253.999985" y2="-105.166672" gradientTransform="matrix(1,0,0,1,84.666679,0)">
<stop offset="0" style="stop-color:rgb(25.882353%,25.882353%,25.882353%);stop-opacity:1;"/>
<stop offset="1" style="stop-color:rgb(38.039216%,38.039216%,38.039216%);stop-opacity:1;"/>
</linearGradient>
<linearGradient id="linear5" gradientUnits="userSpaceOnUse" x1="275.166656" y1="233.5" x2="275.166656" y2="-105.166672" >
<stop offset="0" style="stop-color:rgb(25.882353%,25.882353%,25.882353%);stop-opacity:1;"/>
<stop offset="1" style="stop-color:rgb(38.039216%,38.039216%,38.039216%);stop-opacity:1;"/>
</linearGradient>
<linearGradient id="linear6" gradientUnits="userSpaceOnUse" x1="253.999985" y1="233.5" x2="253.999985" y2="-105.166656" gradientTransform="matrix(1,0,0,1,-84.666656,0)">
<stop offset="0" style="stop-color:rgb(25.882353%,25.882353%,25.882353%);stop-opacity:1;"/>
<stop offset="1" style="stop-color:rgb(38.039216%,38.039216%,38.039216%);stop-opacity:1;"/>
</linearGradient>
</defs>
<g id="surface1">
<path style=" stroke:none;fill-rule:nonzero;fill:url(#linear0);" d="M 4.300781 14.015625 L 11.578125 14.015625 L 11.578125 14.679688 L 4.300781 14.679688 Z M 4.300781 14.015625 "/>
<path style=" stroke:none;fill-rule:nonzero;fill:url(#radial0);" d="M 11.578125 14.015625 L 12.898438 14.015625 L 12.898438 13.355469 L 11.578125 13.355469 Z M 11.578125 14.015625 "/>
<path style=" stroke:none;fill-rule:nonzero;fill:url(#radial1);" d="M 4.300781 14.015625 L 2.976562 14.015625 L 2.976562 14.679688 L 4.300781 14.679688 Z M 4.300781 14.015625 "/>
<path style=" stroke:none;fill-rule:nonzero;fill:url(#radial2);" d="M 4.300781 14.015625 L 2.976562 14.015625 L 2.976562 13.355469 L 4.300781 13.355469 Z M 4.300781 14.015625 "/>
<path style=" stroke:none;fill-rule:nonzero;fill:url(#radial3);" d="M 11.578125 14.015625 L 12.898438 14.015625 L 12.898438 14.679688 L 11.578125 14.679688 Z M 11.578125 14.015625 "/>
<path style=" stroke:none;fill-rule:nonzero;fill:url(#linear1);" d="M 3.636719 3.433594 L 12.238281 3.433594 C 12.601562 3.433594 12.898438 3.730469 12.898438 4.09375 L 12.898438 13.355469 C 12.898438 13.722656 12.601562 14.015625 12.238281 14.015625 L 3.636719 14.015625 C 3.273438 14.015625 2.976562 13.722656 2.976562 13.355469 L 2.976562 4.09375 C 2.976562 3.730469 3.273438 3.433594 3.636719 3.433594 Z M 3.636719 3.433594 "/>
<path style=" stroke:none;fill-rule:nonzero;fill:rgb(0%,0%,0%);fill-opacity:0.196078;" d="M 2.976562 12.609375 L 12.898438 12.609375 L 12.898438 12.695312 L 2.976562 12.695312 Z M 2.976562 12.609375 "/>
<path style=" stroke:none;fill-rule:nonzero;fill:rgb(90.196079%,90.196079%,90.196079%);fill-opacity:0.588235;" d="M 2.976562 12.695312 L 12.898438 12.695312 L 12.898438 12.777344 L 2.976562 12.777344 Z M 2.976562 12.695312 "/>
<path style=" stroke:none;fill-rule:nonzero;fill:rgb(12.941177%,12.941177%,12.941177%);fill-opacity:0.992157;" d="M 2.976562 12.652344 L 12.898438 12.652344 L 12.898438 12.734375 L 2.976562 12.734375 Z M 2.976562 12.652344 "/>
<path style="fill-rule:nonzero;fill:url(#linear2);stroke-width:3;stroke-linecap:round;stroke-linejoin:miter;stroke:rgb(12.941177%,12.941177%,12.941177%);stroke-opacity:1;stroke-miterlimit:4;" d="M 253.975747 -168.629428 C 265.724625 -168.629428 275.223717 -159.130335 275.223717 -147.506445 C 275.223717 -135.757567 265.724625 -126.383462 253.975747 -126.383462 C 242.351857 -126.383462 232.852764 -135.757567 232.852764 -147.506445 C 232.852764 -159.130335 242.351857 -168.629428 253.975747 -168.629428 Z M 253.975747 -168.629428 " transform="matrix(0.031253,0,0,0.031253,0,6.719392)"/>
<path style="fill-rule:nonzero;fill:url(#linear3);stroke-width:3;stroke-linecap:round;stroke-linejoin:miter;stroke:rgb(12.941177%,12.941177%,12.941177%);stroke-opacity:1;stroke-miterlimit:4;" d="M 105.86489 -147.506445 L 402.211591 -147.506445 C 413.835481 -147.506445 423.334574 -138.007352 423.334574 -126.383462 C 423.334574 -114.634584 413.835481 -105.135492 402.211591 -105.135492 L 105.86489 -105.135492 C 94.116012 -105.135492 84.616919 -114.634584 84.616919 -126.383462 C 84.616919 -138.007352 94.116012 -147.506445 105.86489 -147.506445 Z M 105.86489 -147.506445 " transform="matrix(0.031253,0,0,0.031253,0,6.719392)"/>
<path style="fill-rule:nonzero;fill:url(#linear4);stroke-width:3;stroke-linecap:round;stroke-linejoin:miter;stroke:rgb(12.941177%,12.941177%,12.941177%);stroke-opacity:1;stroke-miterlimit:4;" d="M 338.717654 -62.889526 C 350.341544 -62.889526 359.840637 -53.390433 359.840637 -41.641555 L 359.840637 148.840255 C 359.840637 160.464145 350.341544 169.963238 338.717654 169.963238 C 326.968776 169.963238 317.469683 160.464145 317.469683 148.840255 L 317.469683 -41.641555 C 317.469683 -53.390433 326.968776 -62.889526 338.717654 -62.889526 Z M 338.717654 -62.889526 " transform="matrix(0.031253,0,0,0.031253,0,6.719392)"/>
<path style=" stroke:none;fill-rule:nonzero;fill:rgb(90.196079%,90.196079%,90.196079%);fill-opacity:0.392157;" d="M 3.308594 2.15625 C 2.941406 2.15625 2.644531 2.449219 2.644531 2.816406 L 2.644531 2.898438 C 2.644531 2.535156 2.941406 2.238281 3.308594 2.238281 L 12.570312 2.238281 C 12.933594 2.238281 13.230469 2.535156 13.230469 2.898438 L 13.230469 2.816406 C 13.230469 2.449219 12.933594 2.15625 12.570312 2.15625 Z M 3.308594 2.15625 "/>
<path style=" stroke:none;fill-rule:nonzero;fill:rgb(0%,0%,0%);fill-opacity:0.196078;" d="M 3.308594 3.382812 C 2.941406 3.382812 2.644531 3.085938 2.644531 2.722656 L 2.644531 2.636719 C 2.644531 3.003906 2.941406 3.300781 3.308594 3.300781 L 12.570312 3.300781 C 12.933594 3.300781 13.230469 3.003906 13.230469 2.636719 L 13.230469 2.722656 C 13.230469 3.085938 12.933594 3.382812 12.570312 3.382812 Z M 3.308594 3.382812 "/>
<path style=" stroke:none;fill-rule:nonzero;fill:rgb(20%,20%,20%);fill-opacity:1;" d="M 3.308594 2.0625 C 2.914062 2.0625 2.597656 2.378906 2.597656 2.769531 C 2.597656 3.164062 2.914062 3.480469 3.308594 3.480469 L 12.570312 3.480469 C 12.960938 3.480469 13.277344 3.164062 13.277344 2.769531 C 13.277344 2.378906 12.960938 2.0625 12.570312 2.0625 Z M 3.308594 2.15625 L 12.570312 2.15625 C 12.910156 2.15625 13.183594 2.429688 13.183594 2.769531 C 13.183594 3.113281 12.910156 3.386719 12.570312 3.386719 L 3.308594 3.386719 C 2.964844 3.386719 2.691406 3.113281 2.691406 2.769531 C 2.691406 2.429688 2.964844 2.15625 3.308594 2.15625 Z M 3.308594 2.15625 "/>
<path style=" stroke:none;fill-rule:nonzero;fill:rgb(90.196079%,90.196079%,90.196079%);fill-opacity:0.392157;" d="M 3.636719 3.476562 C 3.273438 3.476562 2.976562 3.769531 2.976562 4.136719 L 2.976562 4.21875 C 2.976562 3.855469 3.273438 3.558594 3.636719 3.558594 L 12.238281 3.558594 C 12.605469 3.558594 12.898438 3.855469 12.898438 4.21875 L 12.898438 4.136719 C 12.898438 3.769531 12.605469 3.476562 12.238281 3.476562 Z M 3.636719 3.476562 "/>
<path style=" stroke:none;fill-rule:nonzero;fill:rgb(0%,0%,0%);fill-opacity:0.196078;" d="M 3.636719 13.96875 C 3.273438 13.96875 2.976562 13.671875 2.976562 13.304688 L 2.976562 13.222656 C 2.976562 13.589844 3.273438 13.882812 3.636719 13.882812 L 12.238281 13.882812 C 12.605469 13.882812 12.898438 13.589844 12.898438 13.222656 L 12.898438 13.304688 C 12.898438 13.671875 12.605469 13.96875 12.238281 13.96875 Z M 3.636719 13.96875 "/>
<path style="fill:none;stroke-width:3;stroke-linecap:round;stroke-linejoin:miter;stroke:rgb(12.941177%,12.941177%,12.941177%);stroke-opacity:1;stroke-miterlimit:4;" d="M 116.363888 -105.135492 L 391.587605 -105.135492 C 403.211495 -105.135492 412.710588 -95.636399 412.710588 -84.012509 L 412.710588 212.334192 C 412.710588 224.08307 403.211495 233.457174 391.587605 233.457174 L 116.363888 233.457174 C 104.739998 233.457174 95.240905 224.08307 95.240905 212.334192 L 95.240905 -84.012509 C 95.240905 -95.636399 104.739998 -105.135492 116.363888 -105.135492 Z M 116.363888 -105.135492 " transform="matrix(0.031253,0,0,0.031253,0,6.719392)"/>
<path style="fill-rule:nonzero;fill:url(#linear5);stroke-width:3;stroke-linecap:round;stroke-linejoin:miter;stroke:rgb(12.941177%,12.941177%,12.941177%);stroke-opacity:1;stroke-miterlimit:4;" d="M 253.975747 -62.889526 C 265.724625 -62.889526 275.223717 -53.390433 275.223717 -41.641555 L 275.223717 148.840255 C 275.223717 160.464145 265.724625 169.963238 253.975747 169.963238 C 242.351857 169.963238 232.852764 160.464145 232.852764 148.840255 L 232.852764 -41.641555 C 232.852764 -53.390433 242.351857 -62.889526 253.975747 -62.889526 Z M 253.975747 -62.889526 " transform="matrix(0.031253,0,0,0.031253,0,6.719392)"/>
<path style="fill-rule:nonzero;fill:url(#linear6);stroke-width:3;stroke-linecap:round;stroke-linejoin:miter;stroke:rgb(12.941177%,12.941177%,12.941177%);stroke-opacity:1;stroke-miterlimit:4;" d="M 169.358827 -62.889526 C 180.982717 -62.889526 190.48181 -53.390433 190.48181 -41.641555 L 190.48181 148.840255 C 190.48181 160.464145 180.982717 169.963238 169.358827 169.963238 C 157.609949 169.963238 148.110856 160.464145 148.110856 148.840255 L 148.110856 -41.641555 C 148.110856 -53.390433 157.609949 -62.889526 169.358827 -62.889526 Z M 169.358827 -62.889526 " transform="matrix(0.031253,0,0,0.031253,0,6.719392)"/>
</g>
</svg>

<svg xmlns="http://www.w3.org/2000/svg" width="16pt" height="16pt" viewBox="0 0 16 16"><defs><linearGradient id="a" gradientUnits="userSpaceOnUse" x1="254" y1="233.5" x2="254" y2="254.667" gradientTransform="matrix(.03125 0 0 .03125 0 6.72)"><stop offset="0" stop-opacity=".275"/><stop offset="1" stop-opacity="0"/></linearGradient><radialGradient id="b" gradientUnits="userSpaceOnUse" cx="450.909" cy="189.579" fx="450.909" fy="189.579" r="21.167" gradientTransform="matrix(0 -.03907 -.07032 0 24.742 31.798)"><stop offset="0" stop-opacity=".314"/><stop offset=".222" stop-opacity=".275"/><stop offset="1" stop-opacity="0"/></radialGradient><radialGradient id="c" gradientUnits="userSpaceOnUse" cx="450.909" cy="189.579" fx="450.909" fy="189.579" r="21.167" gradientTransform="matrix(0 .03907 .07032 0 -8.866 -3.764)"><stop offset="0" stop-opacity=".314"/><stop offset=".222" stop-opacity=".275"/><stop offset="1" stop-opacity="0"/></radialGradient><radialGradient id="d" gradientUnits="userSpaceOnUse" cx="450.909" cy="189.579" fx="450.909" fy="189.579" r="21.167" gradientTransform="matrix(0 -.03907 .07032 0 -8.866 31.798)"><stop offset="0" stop-opacity=".314"/><stop offset=".222" stop-opacity=".275"/><stop offset="1" stop-opacity="0"/></radialGradient><radialGradient id="e" gradientUnits="userSpaceOnUse" cx="450.909" cy="189.579" fx="450.909" fy="189.579" r="21.167" gradientTransform="matrix(0 .03907 -.07032 0 24.742 -3.764)"><stop offset="0" stop-opacity=".314"/><stop offset=".222" stop-opacity=".275"/><stop offset="1" stop-opacity="0"/></radialGradient><linearGradient id="f" gradientUnits="userSpaceOnUse" x1="254" y1="-105.167" x2="254" y2="233.5" gradientTransform="matrix(.03125 0 0 .03125 0 6.72)"><stop offset="0" stop-color="#4db6ac"/><stop offset="1" stop-color="#26a69a"/></linearGradient><linearGradient id="g" gradientUnits="userSpaceOnUse" x1="254" y1="233.5" x2="254" y2="-168.667"><stop offset="0" stop-color="#424242"/><stop offset="1" stop-color="#616161"/></linearGradient><linearGradient id="h" gradientUnits="userSpaceOnUse" x1="285.75" y1="191.167" x2="285.75" y2="-147.5"><stop offset="0" stop-color="#4db6ac"/><stop offset="1" stop-color="#26a69a"/></linearGradient><linearGradient id="i" gradientUnits="userSpaceOnUse" x1="254" y1="233.5" x2="254" y2="-105.167" gradientTransform="translate(84.667)"><stop offset="0" stop-color="#424242"/><stop offset="1" stop-color="#616161"/></linearGradient><linearGradient id="j" gradientUnits="userSpaceOnUse" x1="275.167" y1="233.5" x2="275.167" y2="-105.167"><stop offset="0" stop-color="#424242"/><stop offset="1" stop-color="#616161"/></linearGradient><linearGradient id="k" gradientUnits="userSpaceOnUse" x1="254" y1="233.5" x2="254" y2="-105.167" gradientTransform="translate(-84.667)"><stop offset="0" stop-color="#424242"/><stop offset="1" stop-color="#616161"/></linearGradient></defs><path d="M4.3 14.016h7.278v.664H4.301zm0 0" fill="url(#a)"/><path d="M11.578 14.016h1.32v-.66h-1.32zm0 0" fill="url(#b)"/><path d="M4.3 14.016H2.978v.664H4.3zm0 0" fill="url(#c)"/><path d="M4.3 14.016H2.978v-.66H4.3zm0 0" fill="url(#d)"/><path d="M11.578 14.016h1.32v.664h-1.32zm0 0" fill="url(#e)"/><path d="M3.637 3.434h8.601c.364 0 .66.296.66.66v9.261a.66.66 0 0 1-.66.66H3.637a.66.66 0 0 1-.66-.66V4.094c0-.364.296-.66.66-.66zm0 0" fill="url(#f)"/><path d="M2.977 12.61h9.921v.085H2.977zm0 0" fill-opacity=".196"/><path d="M2.977 12.695h9.921v.082H2.977zm0 0" fill="#e6e6e6" fill-opacity=".588"/><path d="M2.977 12.652h9.921v.082H2.977zm0 0" fill="#212121" fill-opacity=".992"/><path d="M253.976-168.63c11.749 0 21.248 9.5 21.248 21.124 0 11.748-9.5 21.123-21.248 21.123-11.624 0-21.123-9.375-21.123-21.123 0-11.624 9.499-21.123 21.123-21.123zm0 0" transform="matrix(.03125 0 0 .03125 0 6.72)" fill="url(#g)" stroke-width="3" stroke-linecap="round" stroke="#212121"/><path d="M105.865-147.506h296.347c11.623 0 21.123 9.499 21.123 21.123 0 11.748-9.5 21.248-21.123 21.248H105.865c-11.749 0-21.248-9.5-21.248-21.248 0-11.624 9.499-21.123 21.248-21.123zm0 0" transform="matrix(.03125 0 0 .03125 0 6.72)" fill="url(#h)" stroke-width="3" stroke-linecap="round" stroke="#212121"/><path d="M338.718-62.89c11.624 0 21.123 9.5 21.123 21.248V148.84c0 11.624-9.5 21.123-21.123 21.123-11.75 0-21.248-9.499-21.248-21.123V-41.642c0-11.748 9.499-21.248 21.248-21.248zm0 0" transform="matrix(.03125 0 0 .03125 0 6.72)" fill="url(#i)" stroke-width="3" stroke-linecap="round" stroke="#212121"/><path d="M3.309 2.156a.66.66 0 0 0-.664.66v.082c0-.363.296-.66.664-.66h9.261c.364 0 .66.297.66.66v-.082a.66.66 0 0 0-.66-.66zm0 0" fill="#e6e6e6" fill-opacity=".392"/><path d="M3.309 3.383a.663.663 0 0 1-.664-.66v-.086c0 .367.296.664.664.664h9.261c.364 0 .66-.297.66-.664v.086c0 .363-.296.66-.66.66zm0 0" fill-opacity=".196"/><path d="M3.309 2.063a.709.709 0 1 0 0 1.418h9.261c.39 0 .707-.317.707-.711a.707.707 0 0 0-.707-.708zm0 .093h9.261c.34 0 .614.274.614.614a.613.613 0 0 1-.614.617H3.31a.614.614 0 0 1-.618-.617c0-.34.274-.614.618-.614zm0 0" fill="#333"/><path d="M3.637 3.477a.66.66 0 0 0-.66.66v.082c0-.364.296-.66.66-.66h8.601a.66.66 0 0 1 .66.66v-.082a.657.657 0 0 0-.66-.66zm0 0" fill="#e6e6e6" fill-opacity=".392"/><path d="M3.637 13.969a.663.663 0 0 1-.66-.664v-.082c0 .367.296.66.66.66h8.601c.367 0 .66-.293.66-.66v.082a.66.66 0 0 1-.66.664zm0 0" fill-opacity=".196"/><path d="M3.637 3.434h8.601c.364 0 .66.296.66.66v9.261a.66.66 0 0 1-.66.66H3.637a.66.66 0 0 1-.66-.66V4.094c0-.364.296-.66.66-.66zm0 0" fill="none" stroke-width=".09375" stroke-linecap="round" stroke="#212121"/><path d="M253.976-62.89c11.749 0 21.248 9.5 21.248 21.248V148.84c0 11.624-9.5 21.123-21.248 21.123-11.624 0-21.123-9.499-21.123-21.123V-41.642c0-11.748 9.499-21.248 21.123-21.248zm0 0" transform="matrix(.03125 0 0 .03125 0 6.72)" fill="url(#j)" stroke-width="3" stroke-linecap="round" stroke="#212121"/><path d="M169.359-62.89c11.624 0 21.123 9.5 21.123 21.248V148.84c0 11.624-9.5 21.123-21.123 21.123-11.75 0-21.248-9.499-21.248-21.123V-41.642c0-11.748 9.499-21.248 21.248-21.248zm0 0" transform="matrix(.03125 0 0 .03125 0 6.72)" fill="url(#k)" stroke-width="3" stroke-linecap="round" stroke="#212121"/></svg>
